X:1
T:Title
L:1/8
M:4/4
I:linebreak $
K:A
V:1 treble nm="Voice"
V:1
"A" EABA cABA | BAcA"D" d3 e | f2 ed"A" ceee |"E" dcBd"A" c3 A |"A" EABA cABA | BAcA"D" d3 e | %6
 f2 ed"A" ceee |1"E" dcBG"A" A4 :|2"E" dcBG"A" A2 Ae ||"A" Aefg aece | Aefg a3 e | eefg aeAe | %12
 Aefg a3 e |"A" eefg a2 g2 |"D" f2 e2 d2 c2 |"E" BABd"A" c3 A |"E" BdcB"A" A2 cc | %17
"E" BABd"A" c3 A | cdcB A2 cc |"E" BGBG"A" A3 c |"A" cdcB A2 cc |"E" BABd"A" c3 A | cdcB A2 ee | %23
"D" fAgA"A" a3 c |] %24
